dist/svg/u1F9BF.svg

<?xml version="1.0" encoding="UTF-8"?><svg id="Layer_1" xmlns="http://www.w3.org/2000/svg" viewBox="0 0 40 40"><g><path d="M16.76286,29.90112c1.27148,.69584,2.85968,.37021,3.75475-.76983l7.67967-9.78151c.4017-.60761,.56033-1.29678,.59545-1.66359,.23472-2.45084-2.24122-4.07333-4.40349-2.89591l-3.32812,1.81226c-4.91759,2.98842-4.80582,6.42913-5.55636,10.64179-.18979,1.06528,.30888,2.13732,1.25808,2.65679h0Z" style="fill:#65778e;"/><path d="M20.71074,3.36807c-2.40987-2.76587-6.82331-2.41181-8.7518,.73987-1.66466,2.72051-.49885,6.28561,2.32562,7.76704l4.18819,2.1967c1.61733,.84829,3.55138,.83322,5.15531-.04016l.05122-.02789c2.19272-1.194,2.71661-4.11102,1.0764-5.99341l-4.04493-4.64215Z" style="fill:#65778e;"/><path d="M13.00054,36.58118c-.18661,1.00302,.62699,1.9188,1.64723,1.9188l12.47191,.00002v-1.08944c0-.5141-.30231-.97985-.77169-1.18936l-4.84153-1.83225c-.7655-.2897-1.32884-.95093-1.49277-1.75283l-.00861-.04208c-.17694-.86514-.93808-1.48699-1.82114-1.48699h-1.81222c-.78089,0-1.47191,.4959-1.74417,1.22779-.62432,1.67831-1.38114,2.92475-1.62702,4.24633Z" style="fill:#65778e;"/><circle cx="25.88985" cy="17.28295" r="2.06683" style="fill:#d0d6de;"/><circle cx="22.46644" cy="11.01358" r="1.46147" style="fill:#d0d6de;"/></g><rect width="40" height="40" style="fill:none;"/></svg>

<svg id="Layer_1" data-name="Layer 1" xmlns="http://www.w3.org/2000/svg" viewBox="0 0 40 40"><defs><style>.cls-1{fill:#65778e;}.cls-2{fill:#d0d6de;}.cls-3{fill:none;}</style></defs><path class="cls-1" d="M16.763,29.9a2.965,2.965,0,0,0,3.755-.77L28.2,19.35a3.905,3.905,0,0,0,.6-1.664,2.945,2.945,0,0,0-4.4-2.9L21.061,16.6c-4.917,2.988-4.806,6.429-5.556,10.641A2.517,2.517,0,0,0,16.763,29.9Z"/><path class="cls-1" d="M20.711,3.368a5.444,5.444,0,0,0-8.752.74,5.578,5.578,0,0,0,2.326,7.767l4.188,2.2a5.47,5.47,0,0,0,5.155-.04L23.679,14A3.9,3.9,0,0,0,24.756,8.01Z"/><path class="cls-1" d="M13,36.581A1.653,1.653,0,0,0,14.648,38.5H27.12V37.411a1.3,1.3,0,0,0-.772-1.19l-4.842-1.832a2.385,2.385,0,0,1-1.492-1.753l-.009-.042a1.859,1.859,0,0,0-1.821-1.487H16.372a1.868,1.868,0,0,0-1.744,1.228A30.208,30.208,0,0,0,13,36.581Z"/><circle class="cls-2" cx="25.89" cy="17.283" r="2.067"/><circle class="cls-2" cx="22.466" cy="11.014" r="1.461"/><rect class="cls-3" width="40" height="40"/></svg>
